flaticon/file-type/flash.svg

<svg xmlns="http://www.w3.org/2000/svg" width="32" height="32" viewBox="0 0 24 24">
    <path d="M 18.589844 0 L 5.410156 0 C 2.425781 0 0 2.425781 0 5.410156 L 0 18.589844 C 0 21.574219 2.425781 24 5.410156 24 L 18.589844 24 C 21.574219 24 24 21.574219 24 18.589844 L 24 5.410156 C 24 2.425781 21.574219 0 18.589844 0 Z M 23.109375 18.589844 C 23.109375 21.082031 21.082031 23.109375 18.589844 23.109375 L 5.410156 23.109375 C 2.917969 23.109375 0.890625 21.082031 0.890625 18.589844 L 0.890625 5.410156 C 0.890625 2.917969 2.917969 0.890625 5.410156 0.890625 L 18.589844 0.890625 C 21.082031 0.890625 23.109375 2.917969 23.109375 5.410156 Z M 23.109375 18.589844"/>
    <path d="M7.839844 17.777344L9.121094 17.777344 9.121094 11.679688 11.519531 11.679688 12 10.4375 9.121094 10.4375 9.121094 6.578125 13.777344 6.578125 13.777344 5.332031 7.839844 5.332031zM14.71875 5.332031L16 5.332031 16 17.777344 14.71875 17.777344zM14.71875 5.332031"/>
</svg>

<svg xmlns="http://www.w3.org/2000/svg" width="32" height="32" viewBox="0 0 24 24">
    <path d="M18.59 0H5.41A5.415 5.415 0 0 0 0 5.41v13.18A5.415 5.415 0 0 0 5.41 24h13.18A5.415 5.415 0 0 0 24 18.59V5.41A5.415 5.415 0 0 0 18.59 0zm4.52 18.59a4.525 4.525 0 0 1-4.52 4.52H5.41a4.525 4.525 0 0 1-4.52-4.52V5.41A4.525 4.525 0 0 1 5.41.89h13.18a4.525 4.525 0 0 1 4.52 4.52zm0 0"/>
    <path d="M7.84 17.777H9.12V11.68h2.399l.48-1.242H9.121v-3.86h4.656V5.332H7.84zm0 0M14.719 5.332H16v12.445h-1.281zm0 0"/>
</svg>
